X: 261
P: Longways for &c.
M: C|
L: 1/8
K: Dm
V: 1
|: f |\
eAd=B ^cA2G | ^FAdA BG2F | EGcG Af2A | Bg2B ca2c | dgce f3a |
^fd2c'2 b/a/ bg | ec2b2 a/g/ af | dB2g2 f/e/ fe | dbad ^c3A | BG2e ^cA2a | ^cdec d3 :|
V: 2 clef=bass middle=d
z |\
d2g2 ^c2d2 | =B2^c2 defd | Gc FB AA=B^c | dFGA D3 :: d |\
a2fg aAcA | d2^f2 gGBG | c2e2
f2F2 |\
g2G2 a2A2 | b2c'2 f_edc | d2Bc d2G2 | c2AB c2F2 |\

